X:52
T:Miss Rowan Davies
C:Phil Cunningham
R:Waltz
M:3/4
K:G
BA||G3 AD2|D3 EF2|G6|G4 gf|
e3 fge|d3 GBG|A4 A/G/A|B3 GAF|
G3 AD2|D3 EF2|G4 GF|G3 ABG|
Ec3 cA|F4 FG|G6|1 G4 BA:|2 G4 GF||
E3 EE2|e3 fge|d5 e|d3 ABA|
G3 ABd|eG3 GA|B5 G|B3 cdg|
e3 EEG|F3 GAB|G4 GF|G3 ABG|
Ec3 cA|F4 FG|G6|1 G4 GF:|2 G4 BA||
